build/svg/cmd/sc_insertvideo.svg

<?xml version="1.0" encoding="UTF-8" standalone="no"?>
<svg
   xmlns:dc="http://purl.org/dc/elements/1.1/"
   xmlns:cc="http://creativecommons.org/ns#"
   xmlns:rdf="http://www.w3.org/1999/02/22-rdf-syntax-ns#"
   xmlns:svg="http://www.w3.org/2000/svg"
   xmlns="http://www.w3.org/2000/svg"
   xmlns:sodipodi="http://sodipodi.sourceforge.net/DTD/sodipodi-0.dtd"
   xmlns:inkscape="http://www.inkscape.org/namespaces/inkscape"
   viewBox="0 0 16 16"
   version="1.1"
   id="svg4"
   sodipodi:docname="sc_insertvideo.svg"
   inkscape:export-filename="/home/jupiter007/Libreoffice yaru theme fullcolor/build/cmd/sc_insertvideo.png"
   inkscape:export-xdpi="95"
   inkscape:export-ydpi="95"
   inkscape:version="0.92.5 (2060ec1f9f, 2020-04-08)"><metadata
   id="metadata10">
  <rdf:RDF>
    <cc:Work
       rdf:about="">
      <dc:format>image/svg+xml</dc:format>
      <dc:type
         rdf:resource="http://purl.org/dc/dcmitype/StillImage" />
    </cc:Work>
  </rdf:RDF>
</metadata>
<defs
   id="defs8" />
<sodipodi:namedview
   pagecolor="#ffffff"
   bordercolor="#666666"
   borderopacity="1"
   objecttolerance="10"
   gridtolerance="10"
   guidetolerance="10"
   inkscape:pageopacity="0"
   inkscape:pageshadow="2"
   inkscape:window-width="1920"
   inkscape:window-height="1011"
   id="namedview6"
   showgrid="false"
   inkscape:zoom="14.75"
   inkscape:cx="0.44067797"
   inkscape:cy="8"
   inkscape:window-x="0"
   inkscape:window-y="32"
   inkscape:window-maximized="1"
   inkscape:current-layer="svg4" />
/&gt;<path
   id="path28"
   d="M 3.9999999,1.9999999 H 12 L 11.97368,13.013158 H 3.9999999 Z"
   inkscape:connector-curvature="0"
   style="fill:#b549b5;fill-opacity:1;stroke-width:0.86165076"
   sodipodi:nodetypes="ccccc" />
<path
   id="path30"
   d="m 2.4285709,1.0072643 c -0.236683,2.39e-5 -0.428547,0.1939115 -0.428571,0.4330912 V 13.566909 c 2.4e-5,0.23918 0.191888,0.433067 0.428571,0.433091 h 1.55448 9.5883781 C 13.808112,13.999976 13.999976,13.806089 14,13.566909 V 1.4403555 C 13.999976,1.2011758 13.665255,1.007288 13.428571,1.0072641 l -1.428571,6e-7 -8.016949,-4e-7 z m 0.571429,0.9927361 h 0.983051 l 0.01695,1 H 3.0169499 Z M 5,1.9999999 h 6 V 13 H 5.0000001 Z m 7,9e-7 1,-7e-7 0.01694,1 -0.999999,7e-7 z M 2.9999999,4.0000004 h 0.983051 v 1 h -0.983051 z m 9.0000001,4e-7 1,-6e-7 v 0.9999999 l -1,7e-7 z M 2.9999999,6.0000004 h 0.983051 v 1 h -0.983051 z m 9.0000001,5e-7 1,-7e-7 v 1 l -1,6e-7 z M 2.9999999,8.0000004 h 0.983051 v 1.0000005 h -0.983051 z m 9.0000001,4e-7 1,-7e-7 V 9.0000009 H 12 Z M 2.9999999,10 h 0.983051 v 1 H 2.9999999 Z M 12,10 h 1 v 1 h -1 z m -9.0000001,2 h 0.983051 v 1.000001 H 2.9999999 Z M 12,12 h 1 v 1.000001 h -1 z"
   inkscape:connector-curvature="0"
   style="opacity:0.7;stroke-width:0.86165076"
   sodipodi:nodetypes="ccccccccccccccccccccccccccccccccccccccccccccccccccccccccccccccccccccccccccccc" />
<path
   style="display:block;fill:none;stroke:#000000;stroke-width:1;stroke-linecap:square;stroke-linejoin:round;stroke-opacity:0.58823494"
   inkscape:connector-curvature="0"
   d="M 5.5000001,7.4999999 H 10.5"
   display="block"
   id="path32"
   sodipodi:nodetypes="cc" />
<rect
   style="opacity:1;fill:#ffffff;fill-opacity:1;fill-rule:evenodd;stroke:none;stroke-width:2;stroke-linecap:butt;stroke-linejoin:round;stroke-miterlimit:4;stroke-dasharray:none;stroke-opacity:1"
   id="rect823"
   width="1"
   height="1"
   x="2.9999995"
   y="1.9999999" />
<rect
   y="4"
   x="2.9999995"
   height="1"
   width="1"
   id="rect825"
   style="opacity:1;fill:#ffffff;fill-opacity:1;fill-rule:evenodd;stroke:none;stroke-width:2;stroke-linecap:butt;stroke-linejoin:round;stroke-miterlimit:4;stroke-dasharray:none;stroke-opacity:1" />
<rect
   y="6"
   x="2.9999995"
   height="1"
   width="1"
   id="rect827"
   style="opacity:1;fill:#ffffff;fill-opacity:1;fill-rule:evenodd;stroke:none;stroke-width:2;stroke-linecap:butt;stroke-linejoin:round;stroke-miterlimit:4;stroke-dasharray:none;stroke-opacity:1" />
<rect
   style="opacity:1;fill:#ffffff;fill-opacity:1;fill-rule:evenodd;stroke:none;stroke-width:2;stroke-linecap:butt;stroke-linejoin:round;stroke-miterlimit:4;stroke-dasharray:none;stroke-opacity:1"
   id="rect829"
   width="1"
   height="1"
   x="2.9999995"
   y="7.9999995" />
<rect
   style="opacity:1;fill:#ffffff;fill-opacity:1;fill-rule:evenodd;stroke:none;stroke-width:2;stroke-linecap:butt;stroke-linejoin:round;stroke-miterlimit:4;stroke-dasharray:none;stroke-opacity:1"
   id="rect831"
   width="1"
   height="1"
   x="2.9999995"
   y="9.999999" />
<rect
   y="11.999999"
   x="2.9999995"
   height="1"
   width="1"
   id="rect833"
   style="opacity:1;fill:#ffffff;fill-opacity:1;fill-rule:evenodd;stroke:none;stroke-width:2;stroke-linecap:butt;stroke-linejoin:round;stroke-miterlimit:4;stroke-dasharray:none;stroke-opacity:1" />
<rect
   y="1.9999999"
   x="12.000001"
   height="1"
   width="1"
   id="rect835"
   style="opacity:1;fill:#ffffff;fill-opacity:1;fill-rule:evenodd;stroke:none;stroke-width:2;stroke-linecap:butt;stroke-linejoin:round;stroke-miterlimit:4;stroke-dasharray:none;stroke-opacity:1" />
<rect
   style="opacity:1;fill:#ffffff;fill-opacity:1;fill-rule:evenodd;stroke:none;stroke-width:2;stroke-linecap:butt;stroke-linejoin:round;stroke-miterlimit:4;stroke-dasharray:none;stroke-opacity:1"
   id="rect837"
   width="1"
   height="1"
   x="12.000001"
   y="4" />
<rect
   style="opacity:1;fill:#ffffff;fill-opacity:1;fill-rule:evenodd;stroke:none;stroke-width:2;stroke-linecap:butt;stroke-linejoin:round;stroke-miterlimit:4;stroke-dasharray:none;stroke-opacity:1"
   id="rect839"
   width="1"
   height="1"
   x="12.000001"
   y="6" />
<rect
   y="7.9999995"
   x="12.000001"
   height="1"
   width="1"
   id="rect841"
   style="opacity:1;fill:#ffffff;fill-opacity:1;fill-rule:evenodd;stroke:none;stroke-width:2;stroke-linecap:butt;stroke-linejoin:round;stroke-miterlimit:4;stroke-dasharray:none;stroke-opacity:1" />
<rect
   y="9.999999"
   x="12.000001"
   height="1"
   width="1"
   id="rect843"
   style="opacity:1;fill:#ffffff;fill-opacity:1;fill-rule:evenodd;stroke:none;stroke-width:2;stroke-linecap:butt;stroke-linejoin:round;stroke-miterlimit:4;stroke-dasharray:none;stroke-opacity:1" />
<rect
   style="opacity:1;fill:#ffffff;fill-opacity:1;fill-rule:evenodd;stroke:none;stroke-width:2;stroke-linecap:butt;stroke-linejoin:round;stroke-miterlimit:4;stroke-dasharray:none;stroke-opacity:1"
   id="rect845"
   width="1"
   height="1"
   x="12.000001"
   y="11.999999" />
<circle
   style="opacity:1;vector-effect:none;fill:#46a926;fill-opacity:1;stroke:none;stroke-width:3.49999976;stroke-linecap:butt;stroke-linejoin:round;stroke-miterlimit:4;stroke-dasharray:none;stroke-dashoffset:0;stroke-opacity:1"
   id="path2644"
   cy="12.5"
   cx="12.5"
   r="3.5" />
<path
   inkscape:connector-curvature="0"
   id="path1063"
   overflow="visible"
   font-weight="400"
   style="color:#000000;font-weight:400;line-height:normal;font-family:sans-serif;text-indent:0;text-align:start;text-decoration:none;text-decoration-line:none;text-decoration-style:solid;text-decoration-color:#000000;text-transform:none;white-space:normal;overflow:visible;isolation:auto;mix-blend-mode:normal;fill:#ffffff;fill-opacity:1;marker:none"
   d="m 12.000002,10 v 2 h -2.000001 v 1 h 2.000001 v 2 h 1 v -2 h 2 v -1 h -2 v -2 z" />
</svg>

<svg xmlns="http://www.w3.org/2000/svg" viewBox="0 0 16 16">/&gt;<path d="M4 2h8l-.026 11.013H4z" fill="#b549b5"/><path d="M2.429 1.007A.43.43 0 002 1.44v12.127c0 .24.192.433.429.433H13.57a.43.43 0 00.429-.433V1.44c0-.239-.335-.433-.571-.433H3.983zM3 2h.983L4 3h-.983zm2 0h6v11H5zm7 0h1l.017 1h-1zM3 4h.983v1H3zm9 0h1v1h-1zM3 6h.983v1H3zm9 0h1v1h-1zM3 8h.983v1H3zm9 0h1v1h-1zm-9 2h.983v1H3zm9 0h1v1h-1zm-9 2h.983v1H3zm9 0h1v1h-1z" opacity=".7"/><path d="M5.5 7.5h5" display="block" fill="none" stroke="#000" stroke-linecap="square" stroke-linejoin="round" stroke-opacity=".588"/><path fill="#fff" fill-rule="evenodd" d="M3 2h1v1H3zM3 4h1v1H3zM3 6h1v1H3zM3 8h1v1H3zM3 10h1v1H3zM3 12h1v1H3zM12 2h1v1h-1zM12 4h1v1h-1zM12 6h1v1h-1zM12 8h1v1h-1zM12 10h1v1h-1zM12 12h1v1h-1z"/><circle cy="12.5" cx="12.5" r="3.5" fill="#46a926"/><path overflow="visible" font-weight="400" style="line-height:normal;text-indent:0;text-align:start;text-decoration-line:none;text-decoration-style:solid;text-decoration-color:#000;text-transform:none;white-space:normal;isolation:auto;mix-blend-mode:normal;marker:none" d="M12 10v2h-2v1h2v2h1v-2h2v-1h-2v-2z" color="#000" font-family="sans-serif" fill="#fff"/></svg>
